image/facebook2.svg

<svg width="11" height="20" viewBox="0 0 11 20" fill="none" xmlns="http://www.w3.org/2000/svg">
<path d="M8.33076 3.32083H10.1566V0.140833C9.8416 0.0975 8.75826 0 7.4966 0C4.8641 0 3.06076 1.65583 3.06076 4.69917V7.5H0.155762V11.055H3.06076V20H6.62243V11.0558H9.40993L9.85243 7.50083H6.6216V5.05167C6.62243 4.02417 6.8991 3.32083 8.33076 3.32083Z" fill="#AFB1B8"/>
</svg>

<svg width="11" height="20" fill="none" xmlns="http://www.w3.org/2000/svg"><path d="M8.33 3.32h1.83V.14C9.84.1 8.76 0 7.5 0 4.86 0 3.06 1.66 3.06 4.7v2.8H.16v3.55h2.9V20h3.56v-8.94h2.79l.44-3.56H6.62V5.05c0-1.03.28-1.73 1.71-1.73z" fill="#AFB1B8"/></svg>
